public/img/logos/logo-dark.svg

<svg width="80" height="49" viewBox="0 0 80 49" fill="none" xmlns="http://www.w3.org/2000/svg">
<path d="M6.44713 47.777V6.41956H0V47.777H6.44713Z" fill="#333333"/>
<path d="M53.3605 47.777V18.1245H46.9694V47.777H53.3605Z" fill="#333333"/>
<path d="M73.4408 11.7147C74.7862 11.7147 76.2999 12.2163 77.5333 13.1081L80 8.20317C78.0939 6.80972 75.6832 6.14087 73.2726 6.14087C68.1149 6.14087 63.0132 9.4294 63.0132 16.3409V19.2393H59.0889V24.0327H63.0132V47.777H69.4043V24.0327H77.1969V19.2393H69.4043V15.7278C69.4043 12.9409 71.2543 11.7147 73.4408 11.7147Z" fill="#333333"/>
<path d="M19.7344 19.7041C12.119 24.2284 9.81925 32.6157 14.354 40.3594C18.8606 48.0549 27.1555 50.2379 35.0894 45.5918C39.5401 42.9854 42.2872 39.2451 43.1974 35.0304L38.4155 33.6322C37.6555 36.6609 35.7112 39.2206 32.9053 40.8637C28.8416 43.2435 24.3574 42.5753 21.1769 39.1412L40.6245 27.7525C35.8939 18.1212 28.7809 14.4064 19.7344 19.7041ZM18.7142 35.1577C16.949 30.7011 18.3104 26.4805 22.3741 24.1008C26.5829 21.636 30.805 22.5223 33.4209 26.5454L18.7142 35.1577Z" fill="#333333"/>
<path d="M58.8362 0.563995C58.8187 0.452147 58.7753 0.346832 58.7099 0.257741C58.6446 0.16865 58.5595 0.0986451 58.4624 0.0541675C58.3653 0.00968994 58.2593 -0.00783146 58.1542 0.00321554C58.0492 0.0142625 57.9484 0.0535232 57.8612 0.117385C56.4233 1.05983 54.7549 1.51589 53.0727 1.42632C49.2105 1.42632 47.5985 3.11807 47.5679 3.15702C46.6645 3.87248 46.0095 4.8917 45.7068 6.05284C45.4041 7.21397 45.4711 8.45049 45.8971 9.56605C45.92 9.62594 45.9262 9.69165 45.9152 9.75528C45.9041 9.81891 45.8761 9.87773 45.8346 9.92468L44.167 11.8649C44.0594 11.9901 43.9997 12.1544 44 12.3248C44.0003 12.4952 44.0604 12.6592 44.1684 12.7841C44.2763 12.9089 44.4242 12.9854 44.5823 12.9981C44.7405 13.0109 44.8973 12.959 45.0214 12.8528C46.094 11.8058 47.8435 8.64932 52.762 6.44045C52.9157 6.37306 53.0879 6.37363 53.2412 6.44204C53.3945 6.51044 53.5165 6.64114 53.5805 6.80569C53.6446 6.97023 53.6455 7.15529 53.5832 7.32059C53.5208 7.48589 53.4003 7.61804 53.2477 7.68827C51.284 8.55168 49.4945 9.81536 47.9779 11.4096L47.9723 11.4163L47.8273 11.5849C47.7954 11.6211 47.7713 11.6645 47.757 11.7119C47.7426 11.7593 47.7383 11.8096 47.7443 11.859C47.7503 11.9085 47.7664 11.9559 47.7916 11.9978C47.8168 12.0397 47.8503 12.0751 47.8898 12.1013C48.6881 12.639 49.6115 12.9237 50.5537 12.9227C51.8218 12.8987 53.0643 12.5356 54.169 11.8663C59.65 8.62648 59.1256 2.3961 58.8362 0.563995Z" fill="#77E8C6"/>
</svg>

<svg width="80" height="49" fill="none" xmlns="http://www.w3.org/2000/svg"><path d="M6.447 47.777V6.42H0v41.357h6.447zm46.913 0V18.125h-6.39v29.652h6.39zm20.08-36.062c1.346 0 2.86.501 4.093 1.393L80 8.203c-1.906-1.393-4.317-2.062-6.727-2.062-5.158 0-10.26 3.288-10.26 10.2v2.898H59.09v4.794h3.924v23.744h6.391V24.033h7.793v-4.794h-7.793v-3.511c0-2.787 1.85-4.013 4.037-4.013zm-53.706 7.989c-7.615 4.524-9.915 12.912-5.38 20.655 4.507 7.696 12.802 9.879 20.735 5.233 4.451-2.607 7.198-6.347 8.108-10.562l-4.782-1.398c-.76 3.029-2.704 5.589-5.51 7.232-4.063 2.38-8.548 1.711-11.728-1.723l19.447-11.388c-4.73-9.632-11.843-13.347-20.89-8.049zm-1.02 15.454C16.95 30.7 18.31 26.48 22.374 24.1c4.209-2.465 8.431-1.579 11.047 2.444l-14.707 8.613z" fill="#333"/><path d="M58.836.564a.7.7 0 00-.126-.306.637.637 0 00-.248-.204.59.59 0 00-.6.063 7.949 7.949 0 01-4.79 1.31c-3.861 0-5.474 1.691-5.504 1.73a5.432 5.432 0 00-1.861 2.896 5.789 5.789 0 00.19 3.513.36.36 0 01-.062.359l-1.668 1.94a.705.705 0 00-.167.46c0 .17.06.334.168.46a.6.6 0 00.853.069c1.073-1.048 2.822-4.205 7.741-6.414a.59.59 0 01.48.002c.153.068.275.2.339.364.064.164.064.35.002.515a.656.656 0 01-.335.367 16.387 16.387 0 00-5.27 3.722l-.006.006-.145.169a.358.358 0 00-.036.413.324.324 0 00.099.103 4.753 4.753 0 002.664.822 7.233 7.233 0 003.615-1.057c5.481-3.24 4.957-9.47 4.667-11.302z" fill="#77E8C6"/></svg>
